public/images/dashboard.svg

<?xml version="1.0" encoding="UTF-8" standalone="no"?><!DOCTYPE svg PUBLIC "-//W3C//DTD SVG 1.1//EN" "http://www.w3.org/Graphics/SVG/1.1/DTD/svg11.dtd"><svg width="100%" height="100%" viewBox="0 0 200 200" version="1.1" xmlns="http://www.w3.org/2000/svg" xmlns:xlink="http://www.w3.org/1999/xlink" xml:space="preserve" xmlns:serif="http://www.serif.com/" style="fill-rule:evenodd;clip-rule:evenodd;stroke-linejoin:round;stroke-miterlimit:2;"><path d="M79.167,8.333l-58.334,0c-7.083,0 -12.5,5.834 -12.5,12.5l0,87.5c0,7.084 5.417,12.5 12.5,12.5l58.334,0c7.083,0 12.5,-5.416 12.5,-12.5l-0,-87.5c-0,-6.666 -5.417,-12.5 -12.5,-12.5Zm-0,129.167l-58.334,0c-7.083,0 -12.5,5.417 -12.5,12.5l0,29.167c0,7.083 5.417,12.5 12.5,12.5l58.334,-0c7.083,-0 12.5,-5.417 12.5,-12.5l-0,-29.167c-0,-7.083 -5.417,-12.5 -12.5,-12.5Zm104.166,-58.333l-62.5,-0c-7.083,-0 -12.5,5.416 -12.5,12.5l0,87.083c0,7.083 5.417,12.5 12.5,12.5l62.5,0c7.084,0 12.5,-5.417 12.5,-12.5l0,-87.083c0,-6.667 -5.416,-12.5 -12.5,-12.5Zm0,-70.834l-62.5,0c-7.083,0 -12.5,5.417 -12.5,12.5l0,29.584c0,7.083 5.417,12.5 12.5,12.5l62.5,-0c7.084,-0 12.5,-5.417 12.5,-12.5l0,-29.584c0,-6.666 -5.416,-12.5 -12.5,-12.5Z" style="fill:#212529;fill-rule:nonzero;"/></svg>

<?xml version="1.0" encoding="UTF-8" standalone="no"?>
<!DOCTYPE svg PUBLIC "-//W3C//DTD SVG 1.1//EN" "http://www.w3.org/Graphics/SVG/1.1/DTD/svg11.dtd">
<svg width="100%" height="100%" viewBox="0 0 200 200" version="1.1" xmlns="http://www.w3.org/2000/svg" xmlns:xlink="http://www.w3.org/1999/xlink" xml:space="preserve" xmlns:serif="http://www.serif.com/" style="fill-rule:evenodd;clip-rule:evenodd;stroke-linejoin:round;stroke-miterlimit:2;">
    <path d="M79.167,8.333L20.833,8.333C13.75,8.333 8.333,14.167 8.333,20.833L8.333,108.333C8.333,115.417 13.75,120.833 20.833,120.833L79.167,120.833C86.25,120.833 91.667,115.417 91.667,108.333L91.667,20.833C91.667,14.167 86.25,8.333 79.167,8.333ZM79.167,137.5L20.833,137.5C13.75,137.5 8.333,142.917 8.333,150L8.333,179.167C8.333,186.25 13.75,191.667 20.833,191.667L79.167,191.667C86.25,191.667 91.667,186.25 91.667,179.167L91.667,150C91.667,142.917 86.25,137.5 79.167,137.5ZM183.333,79.167L120.833,79.167C113.75,79.167 108.333,84.583 108.333,91.667L108.333,178.75C108.333,185.833 113.75,191.25 120.833,191.25L183.333,191.25C190.417,191.25 195.833,185.833 195.833,178.75L195.833,91.667C195.833,85 190.417,79.167 183.333,79.167ZM183.333,8.333L120.833,8.333C113.75,8.333 108.333,13.75 108.333,20.833L108.333,50.417C108.333,57.5 113.75,62.917 120.833,62.917L183.333,62.917C190.417,62.917 195.833,57.5 195.833,50.417L195.833,20.833C195.833,14.167 190.417,8.333 183.333,8.333Z" style="fill:rgb(33,37,41);fill-rule:nonzero;"/>
</svg>
